public/icons/icon/tool-embed.svg

<svg width="30" height="30" viewBox="0 0 30 30" fill="none" xmlns="http://www.w3.org/2000/svg">
<path fill-rule="evenodd" clip-rule="evenodd" d="M2 3.5C2 2.67157 2.67157 2 3.5 2H26.5C27.3284 2 28 2.67157 28 3.5V26.5C28 27.3284 27.3284 28 26.5 28H3.5C2.67157 28 2 27.3284 2 26.5V3.5ZM4 26V4H26V26H4Z" fill="black"/>
<path d="M16 8.07751C16 7.52523 15.5523 7.07751 15 7.07751C14.4477 7.07751 14 7.52523 14 8.07751V13.5775H8.5C7.94772 13.5775 7.5 14.0252 7.5 14.5775C7.5 15.1298 7.94772 15.5775 8.5 15.5775H14V21.0775C14 21.6298 14.4477 22.0775 15 22.0775C15.5523 22.0775 16 21.6298 16 21.0775V15.5775H21.5C22.0523 15.5775 22.5 15.1298 22.5 14.5775C22.5 14.0252 22.0523 13.5775 21.5 13.5775H16V8.07751Z" fill="black"/>
</svg>

<svg xmlns="http://www.w3.org/2000/svg" width="30" height="30" fill="none"><path fill="#000" fill-rule="evenodd" d="M2 3.5A1.5 1.5 0 0 1 3.5 2h23A1.5 1.5 0 0 1 28 3.5v23a1.5 1.5 0 0 1-1.5 1.5h-23A1.5 1.5 0 0 1 2 26.5v-23ZM4 26V4h22v22H4Z" clip-rule="evenodd"/><path fill="#000" d="M16 8.078a1 1 0 1 0-2 0v5.5H8.5a1 1 0 1 0 0 2H14v5.5a1 1 0 1 0 2 0v-5.5h5.5a1 1 0 1 0 0-2H16v-5.5Z"/></svg>
